X:5715
T:R_15.1 Lad O'Byrne's
O:england
M:C|
L:1/8
R:reel
K:G
DG (3GGG DG BG|(3ABc BG AG  EG|DG (3GGG GA Bd|e2 e-g ed ge|
dB (3BBB GA BG|cE (3EEE GE CE|DE GA ~B3c|dB Ac BG G2||
DG (3GGG DG BG|c2 Bc AE ~E2|DG (3GGG GA Bd|e2 e-g ed ge|
dB (3BBB GA Bd|cE (3EEE GE CE|DE GA ~B3c|dB Ac BG GA||
Bd d^c d2 (3Bcd|ed gd ed ge|dB (3BBB GA BG|cE (3EEE GE CE|
Bd d^c d2 ef|g2 (3agf gf ed|DE GA ~B3c|1 dB Ac BG Gz:|
2 dB Ac BG G2||


